X: 23977
T: Lockdown, The
R: waltz
M: 3/4
K: Gmajor
D2|"G" B3 A Bc|"Bm" d2 F2 d2|"C" c3 B AG|"D" B2 A2 D2|
"G" B3 A Bc|"Bm" d2 F2 d2|"C" d2 c3 B|"D" A4:|
d2|"C" e3 e dc|"G" d2 G2 B2|"F" c3 B AG|"D" A4 d2|
"C" e2 ed ce|"G" d2 G2 AB|"Am" cB AG "D"FA|"G" G4:|

